X: 1
T: Ba ha viv
P: A(BABA2)3
N: Slow Israeli couple dance
Z: 2010 John Chambers <jc:trillian.mit.edu>
S: handwritten MS of unknown origin
M: 4/4
L: 1/4
K: Dm
"A"\
[| "Bb"d2 cB | "D7"c2 BA | "Eb"G2 FG | "Dm"AF D2 \
|  "Gm"z2 BG | "Dm"A2 GF | "A7"EG FE | "Dm"D4- ||
"B"\
|| "Dm"D2 DF | "Gm"G2 GE | "A7"AG FE | "Dm"F>E D2- \
|  "Dm"D2 GA | "Gm"B2 BG | "D7"c>B AG | "F"A4  |]
